X: 103
Q: "Slow"
M: C
L: 1/8
K: D
V: 1
d | {c}B>ABd Te>def | {e}d>BA>F FE~EF | D<B,~B,D A,2dB | A<FE>F D3 |]
V: 2 clef=bass middle=d
z | G2G2 F2F2 | D2d2 A2A2 | G2G2 f2d2 | a2A2 f2f :|
z | d2g2 f2d2 | A2A2 G2g2 | f2g2 f2d2 | A2A2 d2D ||
z | g2G2 a2A2 | d2d2 A2A2 | G2G2 F2F2 | d2A2 D2d |]


